X:1
T:Diogenes vranten og stolt
T:Diogenes vranten og stolt
T:Sangsamling for norske Selskabskredse
T:Witting(?)
T:Lyder Christian Sagen
C:Wisting
Z:Andreas Munch
%%score [ 1 2 3 ]
L:1/8
Q:1/4=80
M:4/4
K:G
V:1 treble-8 nm="Tenor"
V:2 treble-8 nm="Tenor"
V:3 bass nm="Bass"
V:1
"^Moderato" D | B2 B B (d>c) A B | G4 z2 F2 | E2 F ^G A2 c A | G4 F2 z D | B2 B3/2 B/ ^c2 c3/2 c/ | %6
w: 1.Di-|o- ge- nes vran- * ten og|stolt, som|knur- red saa tidt paa de|Un- ge; Af|Viin dog saa in- der- lig|
w: 2.He-|ra- cli- tus veed _ man, han|gik med|Flas- ken saa lumsk i sin|Lom- me; Han|flæ- bed', saa det hav- de|
 d4 z2 B2 | A2 A3/2 A/ A2 B3/2 ^c/ | e4 d2 z d | F2 d d G2 d d | A4 z2 D2 | B2 B B c2 e3/2 d/ | %12
w: holdt, thi|Sand- hed den gjød paa hans|Tun- ge. Men|da sa- lig Job han blev|lig, og|man- gen Gang sav- ne- de|
w: Skik, Naar|Flas- ker- ne først va- re|tom- me. Han|græd o- ver Ver- dens be-|svær; Men|see, om vi troe dis- se|
 (d3 c) B2 z G | e2 e3/2 e/ d2 ^c3/2 c/ | d4 z2 =c2 | B2 B B (d>c) A B | (G2 B>A) G2 z |] %17
w: Fø- * den, et|Viin- fad han tig- ge- de|sig; der|laa han og ven- * te- de|Dø- * * den.|
w: Løg- * ne: Han|drak, det var Man- dens Ma-|neer, Saa|Viin- en flød ud _ af hans|Øi- * * ne.|
V:2
 D | G2 G G F2 F F | G4 z2 D2 | C2 D D C2 E E | D4 D2 z D | D2 G3/2 G/ G2 G3/2 G/ | F4 z2 G2 | %7
w: 1.Di-|o- ge- nes vran- ten og|stolt, som|knur- red saa tidt paa de|Un- ge; Af|Viin dog saa in- der- lig|holdt, thi|
w: 2.He-|ra- cli- tus veed man, han|gik med|Flas- ken saa lumsk i sin|Lom- me; Han|flæ- bed', saa det hav- de|Skik, Naar|
 F2 F3/2 F/ G2 G3/2 G/ | G4 F2 z D | D2 D D D2 D D | D4 z2 D2 | D2 G =F E2 ^F3/2 F/ | G4 G2 z G | %13
w: Sand- hed den gjød paa hans|Tun- ge. Men|da sa- lig Job han blev|lig, og|man- gen Gang sav- ne- de|Fø- den, et|
w: Flas- ker- ne først va- re|tom- me. Han|græd o- ver Ver- dens be-|svær; Men|see, om vi troe dis- se|Løg- ne: Han|
 G2 G3/2 G/ G2 G3/2 G/ | G4 z2 A2 | G2 G G F2 F F | (D2 F2) G2 z |] %17
w: Viin- fad han tig- ge- de|sig; der|laa han og ven- te- de|Dø- * den.|
w: drak, det var Man- dens Ma-|neer, Saa|Viin- en flød ud af hans|Øi- * ne.|
V:3
 D, | G,,2 G,, G,, D,2 D, D, | E,4 z2 B,,2 | C,2 B,, B,, A,,2 A,, C, | D,4 D,2 z D, | %5
w: 1.Di-|o- ge- nes vran- ten og|stolt, som|knur- red saa tidt paa de|Un- ge; Af|
w: 2:He-|ra- cli- tus veed man, han|gik med|Flas- ken saa lumsk i sin|Lom- me; Han|
 G,,2 G,3/2 G,/ E,2 E,3/2 E,/ | D,4 z2 G,,2 | A,,2 A,,3/2 A,,/ A,,2 A,,3/2 A,,/ | D,4 D,2 z D, | %9
w: Viin dog saa in- der- lig|holdt, thi|Sand- hed den gjød paa hans|Tun- ge. Men|
w: flæ- bed', saa det hav- de|Skik, Naar|Flas- ker- ne først va- re|tom- me. Han|
 C,2 C, C, B,,2 B,, B,, | F,,4 z2 D,2 | G,,2 G,, G,, C,2 C,3/2 C,/ | (B,,3 A,,) G,,2 z G, | %13
w: da sa- lig Job han blev|lig, og|man- gen Gang sav- ne- de|Fø- * den, et|
w: græd o- ver Ver- dens be-|svær; Men|see, om vi troe dis- se|Løg- * ne: Han|
 C,2 C,3/2 C,/ B,,2 ^A,,3/2 A,,/ | B,,4 z2 C,2 | D,2 D, D, D,2 D, D, | (B,,2 D,2) G,,2 z |] %17
w: Viin- fad han tig- ge- de|sig; der|laa han og ven- te- de|Dø- * den.|
w: drak, det var Man- dens Ma-|neer, Saa|Viin- en flød ud af hans|Øi- * ne.|

